X: 15010
T: Geordie's
R: jig
M: 6/8
K: Gmajor
|:B/A/|GBd ceg|dfa g2 f/e/|dcB AGA|BAG E2 D|
BAB cBc|d^cd efg|dBG DFA|G3 G2:|
|:F/G/|AFD FGA|cBA G2 F|E>cc cBc|ed^c d>ef|
gdB ecA|dBG AFD|FGA DFA|G3 G2:|

